X:2918
T:Cherish the Ladies
M:6/8
L:1/8
K:D Major
dFF AGF|DFA AFA|BEE GEE|BdB ABc|!
dFF AGF|DFA AFA|Bcd efg|fdd d3:|!
dfd cec|BdB AFA|BEE GEE|BdB ABc|!
dfd cec|BdB AFA|Bcd efg|fdd d3:|!
Add fdd|add fdd|BAB gfg|ece gfe|!
Add fdd|add fdd|Bcd efg|fdd d3:|!
f2f fef|def fed|g2g gfg|ece gfe|!
[1 f2f fef|def fed|Bcd efg|fdd d3:|!
[2 afa bgb|afa gfe|fdB AGF|GEF GFE|]!
DFA dAF|DFA BGE|DFA dAF|GEF GFE|!
DFA DGB|DFA d2e|fdB AGF|GEF GFE:|!


